Sources/FrostedUI/Resources/Icons.xcassets/dna24.imageset/dna-24.svg

<svg width="24" height="24" viewBox="0 0 24 24" fill="none" xmlns="http://www.w3.org/2000/svg" data-fui-icon="true">
  <path
    fill-rule="evenodd"
    clip-rule="evenodd"
    d="M19.2496 1C18.8354 1 18.4996 1.33579 18.4996 1.75C18.4996 2.1837 18.4665 2.59992 18.4042 3L5.59538 3C5.53304 2.59992 5.5 2.1837 5.5 1.75C5.5 1.33579 5.16422 1 4.75 1C4.33579 1 4 1.33579 4 1.75C4 4.59962 5.20743 6.79252 6.7466 8.52468C7.99054 9.92459 9.48575 11.0579 10.7484 12C9.48575 12.9421 7.99054 14.0754 6.7466 15.4753C5.20743 17.2075 4 19.4004 4 22.25C4 22.6642 4.33579 23 4.75 23C5.16421 23 5.5 22.6642 5.5 22.25C5.5 21.8163 5.53303 21.4001 5.59538 21L18.404 21C18.4665 21.4003 18.4996 21.8165 18.4996 22.25C18.4996 22.6642 18.8354 23 19.2496 23C19.6638 23 19.9996 22.6642 19.9996 22.25C19.9996 18.3073 17.6932 15.6342 15.4003 13.6848C15.0847 13.4165 14.6114 13.4549 14.3431 13.7705C14.0748 14.086 14.1131 14.5594 14.4287 14.8277C14.8658 15.1993 15.2914 15.5886 15.6924 16L8.30713 16C9.395 14.883 10.636 13.9566 11.7767 13.105C12.002 12.9368 12.2233 12.7715 12.4388 12.6083C12.4406 12.6071 12.4423 12.6058 12.444 12.6045C12.4514 12.5991 12.4587 12.5935 12.4659 12.5878C12.6665 12.4359 12.8774 12.2786 13.0962 12.1155C14.3901 11.1509 15.9579 9.98213 17.253 8.52467C18.7921 6.79252 19.9996 4.59962 19.9996 1.75C19.9996 1.33579 19.6638 1 19.2496 1ZM16.9495 17.5L7.05011 17.5C6.61731 18.116 6.25259 18.7791 5.98587 19.5L18.0133 19.5C17.7467 18.7795 17.3822 18.1162 16.9495 17.5ZM7.05012 6.5L16.9494 6.5C17.3823 5.88403 17.747 5.22092 18.0137 4.5L5.98588 4.5C6.25259 5.22092 6.61731 5.88403 7.05012 6.5ZM15.6924 8L8.30713 8C9.39501 9.11697 10.636 10.0434 11.7767 10.895L11.9998 11.0617L12.2229 10.895C13.3636 10.0434 14.6046 9.11697 15.6924 8Z"
    fill="currentColor"
  />
</svg>

<svg xmlns="http://www.w3.org/2000/svg" width="24" height="24" fill="none" data-fui-icon="true" viewBox="0 0 24 24"><path fill="currentColor" fill-rule="evenodd" d="M19.25 1a.75.75 0 0 0-.75.75q-.002.65-.096 1.25H5.595A8 8 0 0 1 5.5 1.75a.75.75 0 1 0-1.5 0C4 4.6 5.207 6.793 6.747 8.525c1.244 1.4 2.739 2.533 4.001 3.475-1.262.942-2.757 2.075-4.001 3.475C5.207 17.208 4 19.4 4 22.25a.75.75 0 0 0 1.5 0q.001-.65.095-1.25h12.809q.095.6.096 1.25a.75.75 0 0 0 1.5 0c0-3.943-2.307-6.616-4.6-8.565a.75.75 0 0 0-.971 1.143c.437.371.862.76 1.263 1.172H8.307c1.088-1.117 2.329-2.043 3.47-2.895l.662-.497q.002 0 .005-.004l.022-.016q.3-.229.63-.472c1.294-.965 2.862-2.134 4.157-3.591C18.793 6.793 20 4.6 20 1.75a.75.75 0 0 0-.75-.75m-2.3 16.5h-9.9a8.8 8.8 0 0 0-1.064 2h12.027a8.8 8.8 0 0 0-1.064-2m-9.9-11h9.9a8.8 8.8 0 0 0 1.064-2H5.986c.267.72.631 1.384 1.064 2M15.692 8H8.307c1.088 1.117 2.329 2.043 3.47 2.895l.223.167.223-.167c1.14-.852 2.382-1.778 3.47-2.895" clip-rule="evenodd"/></svg>
